src/images/svg/symbols/markets-stocks-and-indices/american-stocks/stocks-mc-donalds.svg

<svg width="32" height="32" viewBox="0 0 32 32" fill="none" xmlns="http://www.w3.org/2000/svg">
<path d="M0 16C0 7.16344 7.16344 0 16 0C24.8366 0 32 7.16344 32 16C32 24.8366 24.8366 32 16 32C7.16344 32 0 24.8366 0 16Z" fill="#E51300"/>
<path d="M20.375 8.25C22.1 8.25 23.5 15.525 23.5 24.5H26C26 14.8333 23.5 7 20.375 7C18.6083 7 17.0417 9.35833 16 13.0333C14.9667 9.35833 13.3917 7 11.625 7C8.5 7 6 14.8333 6 24.5H8.5C8.5 15.525 9.9 8.25 11.625 8.25C13.35 8.25 14.75 14.9667 14.75 23.25H17.25C17.25 14.9667 18.65 8.25 20.375 8.25Z" fill="#FEC200"/>
</svg>

<svg width="32" height="32" fill="none" xmlns="http://www.w3.org/2000/svg"><path d="M0 16C0 7.163 7.163 0 16 0s16 7.163 16 16-7.163 16-16 16S0 24.837 0 16Z" fill="#E51300"/><path d="M20.375 8.25c1.725 0 3.125 7.275 3.125 16.25H26C26 14.833 23.5 7 20.375 7 18.608 7 17.042 9.358 16 13.033 14.967 9.358 13.392 7 11.625 7 8.5 7 6 14.833 6 24.5h2.5c0-8.975 1.4-16.25 3.125-16.25s3.125 6.717 3.125 15h2.5c0-8.283 1.4-15 3.125-15Z" fill="#FEC200"/></svg>
